X:69
T:Waterloo Bridge. GS.069
M:6/8
L:1/8
Q:3/8=100
S:George Spencer m/s, Leeds,1831
R:.Quadrille
O:England
A:Leeds
N:The first note should be omitted when repeating the tune. No repeat
N:marks are given. Da Capo is written in the margin at the end of the
N:line.1831 is written on the stave after the final double bar.
H:1831
Z:vmp.Cherri Graebe
K:C major
â€œ_see noteâ€C | E2 E FDF | Ged cBA | G2 E G2 E | GFE DEF |!
E2 E FEF | Ged cBA | G2EG2E | FDB, C2 ||!
G | c2c cBc | d2 G GFG | d2 d dcd | e2 c c2G |!
EGc cBc | FAd dcd | egf edc | BAG FEâ€^Da Capoâ€D |]

